X:604
T: Letzter Wille (301), S. 623
N: T0491
O: Luxemburg
S: Singendes Volk, Esch-Alzette 1937 posth.]
N: Hamm, fff Elisabeth Thoma, *1857, 23.2.1933
R: geistliches Lied]
M: 6/8
L: 1/8
K: G
 | G2GBAG | A2AB2z |
G2GBAG | A3B2
B | BcddcB | cBAB2
D | G2BB2A | A3G2z

@@@ Tune index: 8658
